BOEHME
CUT[HERE IS THY HOME LOVE AILEEN AROON]
REG[Europa, Mitteleuropa, Irland]
KEY[B0727A 16 Bb 3/4]
MEL[  -5_.-61_.23_.2  1_.-71_.23__
    -5__-6__1_.2  1___.
    -5_.-61_.23_.2  1_.-71_.23__
    -5__-6__1_.2  1___.
    4_.34_5_4_32  3_.23_4_3_21
    2_.12_3_4321  1_.2-6_1-6-5__
    5__4_3_2_1-7  1_.-71_.23__
    -5__-6__1_.2  1___. //] >>
FCT[Liebes - Lied]
